X:8
T:Whinny Hills of Leitrim, The
R:slip jig
M:9/8
K:D
FAB FAB FED|FAB FAB d2A|FAB FAB AFD|FAd edc B2A:|
fef efe d2e|fef efg a2g|fef efe dBA|AFA dfa b2a|
fef ~e3 d2e|~f3 def gfg|afd gfe dBA|BAF DFA B2A||
